symbols/web/subtitles/materialsymbolsoutlined/subtitles_wght600_40px.svg

<svg xmlns="http://www.w3.org/2000/svg" height="40" width="40"><path d="M10.25 20.083H13v-2.791h-2.75Zm0 5.542h13.958v-2.792H10.25Zm16.75 0h2.75v-2.792H27Zm-11.208-5.542H29.75v-2.791H15.792ZM6.333 34q-1.5 0-2.583-1.083-1.083-1.084-1.083-2.584V9.667q0-1.5 1.083-2.584Q4.833 6 6.333 6h27.334q1.5 0 2.583 1.083 1.083 1.084 1.083 2.584v20.666q0 1.5-1.083 2.584Q35.167 34 33.667 34Zm0-3.667V9.667v20.666Zm0 0h27.334V9.667H6.333v20.666Z"/></svg>

<svg xmlns="http://www.w3.org/2000/svg" height="40" width="40"><path d="M10.25 20.083H13V17.292H10.25ZM10.25 25.625H24.208V22.833H10.25ZM27 25.625H29.75V22.833H27ZM15.792 20.083H29.75V17.292H15.792ZM6.333 34Q4.833 34 3.75 32.917Q2.667 31.833 2.667 30.333V9.667Q2.667 8.167 3.75 7.083Q4.833 6 6.333 6H33.667Q35.167 6 36.25 7.083Q37.333 8.167 37.333 9.667V30.333Q37.333 31.833 36.25 32.917Q35.167 34 33.667 34ZM6.333 30.333Q6.333 30.333 6.333 30.333Q6.333 30.333 6.333 30.333V9.667Q6.333 9.667 6.333 9.667Q6.333 9.667 6.333 9.667Q6.333 9.667 6.333 9.667Q6.333 9.667 6.333 9.667V30.333Q6.333 30.333 6.333 30.333Q6.333 30.333 6.333 30.333ZM6.333 30.333H33.667Q33.667 30.333 33.667 30.333Q33.667 30.333 33.667 30.333V9.667Q33.667 9.667 33.667 9.667Q33.667 9.667 33.667 9.667H6.333Q6.333 9.667 6.333 9.667Q6.333 9.667 6.333 9.667V30.333Q6.333 30.333 6.333 30.333Q6.333 30.333 6.333 30.333Z"/></svg>
